src/assets/images/comprehensive/insurance-plan/disability-income.svg

<?xml version="1.0" encoding="UTF-8"?>
<svg width="29px" height="27px" viewBox="0 0 29 27" version="1.1" xmlns="http://www.w3.org/2000/svg" xmlns:xlink="http://www.w3.org/1999/xlink">
    <!-- Generator: Sketch 59 (86127) - https://sketch.com -->
    <title>Icon/Insurance/Disability Income</title>
    <desc>Created with Sketch.</desc>
    <defs>
        <polygon id="path-1" points="0.021525 0.043202552 4.31534022 0.043202552 4.31534022 4.36389414 0.021525 4.36389414"></polygon>
        <polygon id="path-3" points="0.125634783 0.114379962 5.38978696 0.114379962 5.38978696 5.41115983 0.125634783 5.41115983"></polygon>
    </defs>
    <g id="Icon/Insurance/Disability-Income" stroke="none" stroke-width="1" fill="none" fill-rule="evenodd">
        <g id="Group-4" transform="translate(3.000000, 0.000000)">
            <g id="Group">
                <path d="M5.93466883,14.2400756 C2.65707327,14.2400756 0,16.9138814 0,20.2118347 C0,23.509788 2.65707327,26.1833648 5.93466883,26.1833648 C9.21249195,26.1833648 11.8695652,23.509788 11.8695652,20.2118347 C11.8695652,16.9138814 9.21249195,14.2400756 5.93466883,14.2400756" id="Fill-1" fill="#00A7A7"></path>
                <g id="Group-5" transform="translate(17.804348, 22.049149)">
                    <mask id="mask-2" fill="white">
                        <use xlink:href="#path-1"></use>
                    </mask>
                    <g id="Clip-4"></g>
                    <path d="M2.16831848,0.043202552 C0.982731522,0.043202552 0.021525,1.0103793 0.021525,2.20355983 C0.021525,3.39674036 0.982731522,4.36391711 2.16831848,4.36391711 C3.3541337,4.36391711 4.31534022,3.39674036 4.31534022,2.20355983 C4.31534022,1.0103793 3.3541337,0.043202552 2.16831848,0.043202552" id="Fill-3" fill="#00A7A7" mask="url(#mask-2)"></path>
                </g>
                <g id="Group-8" transform="translate(3.195652, 0.000000)">
                    <mask id="mask-4" fill="white">
                        <use xlink:href="#path-3"></use>
                    </mask>
                    <g id="Clip-7"></g>
                    <path d="M2.75771087,5.41115983 C4.21150435,5.41115983 5.38978696,4.22532902 5.38978696,2.76273544 C5.38978696,1.30014187 4.21150435,0.114311059 2.75771087,0.114311059 C1.30414565,0.114311059 0.125634783,1.30014187 0.125634783,2.76273544 C0.125634783,4.22532902 1.30414565,5.41115983 2.75771087,5.41115983" id="Fill-6" fill="#00A7A7" mask="url(#mask-4)"></path>
                </g>
                <path d="M21.2282609,19.7436982 L20.9529495,19.1618039 C20.6368343,18.4939142 19.8363452,18.2074151 19.1649156,18.521971 L18.804558,18.6907683 L17.5971766,16.1346304 C16.9936005,14.8563334 15.7020899,14.0404039 14.282666,14.0404039 L9.90656759,14.0404039 L9.90656759,10.299948 L11.9203981,11.2089441 L12.9178001,11.6592221 C13.781558,12.0490526 14.799362,11.6685744 15.1911248,10.8090771 L15.676874,9.74382952 L16.2788454,8.42310506 C16.6000038,7.71940299 16.2864102,6.8897873 15.5789906,6.57044114 C14.8718003,6.25132309 14.0385306,6.5629137 13.7173722,7.26684387 L13.2747192,8.23811239 C13.1866929,8.43108871 12.9583747,8.51639976 12.7644418,8.42903577 L7.81686024,6.19566562 C7.26875907,5.90642924 6.64432261,5.74196597 5.98045771,5.74196597 C3.81212272,5.74196597 2.05434783,7.49107049 2.05434783,9.64870999 L2.05434783,14.5871702 C3.16430427,13.8063688 4.51793765,13.3462823 5.98045771,13.3462823 C8.89128524,13.3462823 11.3741308,15.1633619 12.349297,17.7192717 L13.0911019,17.7192717 C13.8035646,17.7192717 14.4520708,18.128491 14.7558073,18.7699205 L16.3074998,22.0491493 L19.6522694,20.4820721 L21.2282609,19.7436982 Z" id="Fill-9" fill="#00A7A7"></path>
            </g>
        </g>
    </g>
</svg>

<svg xmlns="http://www.w3.org/2000/svg" xmlns:xlink="http://www.w3.org/1999/xlink" width="23" height="27" viewBox="0 0 23 27">
    <defs>
        <path id="a" d="M.022.043h4.293v4.32H.022z"/>
        <path id="c" d="M.126.114H5.39v5.297H.126z"/>
    </defs>
    <g fill="none" fill-rule="evenodd">
        <path fill="#00A7A7" d="M5.935 14.24C2.657 14.24 0 16.914 0 20.212c0 3.298 2.657 5.971 5.935 5.971 3.277 0 5.935-2.673 5.935-5.971S9.212 14.24 5.935 14.24"/>
        <g transform="translate(17.804 22.05)">
            <mask id="b" fill="#fff">
                <use xlink:href="#a"/>
            </mask>
            <path fill="#00A7A7" d="M2.168.043a2.154 2.154 0 0 0-2.146 2.16c0 1.194.96 2.16 2.146 2.16a2.154 2.154 0 0 0 2.147-2.16c0-1.193-.96-2.16-2.147-2.16" mask="url(#b)"/>
        </g>
        <g transform="translate(3.196)">
            <mask id="d" fill="#fff">
                <use xlink:href="#c"/>
            </mask>
            <path fill="#00A7A7" d="M2.758 5.411A2.64 2.64 0 0 0 5.39 2.763 2.64 2.64 0 0 0 2.758.114 2.64 2.64 0 0 0 .126 2.763 2.64 2.64 0 0 0 2.758 5.41" mask="url(#d)"/>
        </g>
        <path fill="#00A7A7" d="M21.228 19.744l-.275-.582a1.347 1.347 0 0 0-1.788-.64l-.36.169-1.208-2.556a3.663 3.663 0 0 0-3.314-2.095H9.907V10.3l2.013.909.998.45a1.72 1.72 0 0 0 2.273-.85l.486-1.065.602-1.32a1.397 1.397 0 0 0-.7-1.854 1.41 1.41 0 0 0-1.862.697l-.442.971a.386.386 0 0 1-.51.191L7.816 6.196a3.922 3.922 0 0 0-1.837-.454c-2.168 0-3.926 1.75-3.926 3.907v4.938a6.8 6.8 0 0 1 3.926-1.24 6.811 6.811 0 0 1 6.37 4.372h.741c.713 0 1.361.41 1.665 1.05l1.551 3.28 3.345-1.567 1.576-.738z"/>
    </g>
</svg>
